assets/svg/1F170.svg

<svg xmlns="http://www.w3.org/2000/svg" viewBox="0 0 64 64" enable-background="new 0 0 64 64"><path fill="#ec1c24" d="M63.918,57.028c0,3.808-3.082,6.89-6.89,6.89H6.887C3.084,63.918,0,60.836,0,57.028V6.887   C0,3.086,3.084,0,6.887,0h50.141c3.808,0,6.89,3.086,6.89,6.887V57.028z"/><path fill="#c32129" d="m0 48.671v8.357c0 3.808 3.084 6.89 6.887 6.89h50.14c3.808 0 6.89-3.082 6.89-6.89v-50.14c-10.914 39.648-50.15 42.16-63.918 41.784"/><path fill="#fff" d="m42.583 46.864l-2.052-5.383h-17.438l-2.05 5.501c-.799 2.144-1.482 3.595-2.046 4.349-.567.748-1.492 1.125-2.782 1.125-1.094 0-2.06-.404-2.896-1.201-.84-.798-1.259-1.708-1.259-2.722 0-.585.096-1.189.292-1.813.192-.625.517-1.492.966-2.604l10.973-27.86c.312-.797.688-1.759 1.125-2.882.442-1.123.909-2.054 1.408-2.795.495-.742 1.149-1.339 1.959-1.799.809-.459 1.808-.687 3-.687 1.208 0 2.219.228 3.03.687.809.459 1.463 1.049 1.962 1.771.494.723.916 1.496 1.256 2.325.342.833.777 1.94 1.304 3.322l11.21 27.682c.878 2.109 1.315 3.641 1.315 4.595 0 .993-.414 1.908-1.243 2.736-.83.829-1.829 1.245-3 1.245-.683 0-1.268-.12-1.757-.369-.487-.243-.897-.573-1.229-.993-.331-.42-.687-1.061-1.067-1.932-.379-.868-.707-1.634-.978-2.298m-17.209-11.909h12.816l-6.467-17.705-6.349 17.705"/></svg>

<?xml version="1.0" encoding="UTF-8" standalone="no"?>
<!-- Generator: Adobe Illustrator 16.0.0, SVG Export Plug-In . SVG Version: 6.00 Build 0)  -->

<svg
   xmlns:dc="http://purl.org/dc/elements/1.1/"
   xmlns:cc="http://creativecommons.org/ns#"
   xmlns:rdf="http://www.w3.org/1999/02/22-rdf-syntax-ns#"
   xmlns:svg="http://www.w3.org/2000/svg"
   xmlns="http://www.w3.org/2000/svg"
   xmlns:sodipodi="http://sodipodi.sourceforge.net/DTD/sodipodi-0.dtd"
   xmlns:inkscape="http://www.inkscape.org/namespaces/inkscape"
   version="1.1"
   id="Layer_1"
   x="0px"
   y="0px"
   width="64px"
   height="64px"
   viewBox="0 0 64 64"
   enable-background="new 0 0 64 64"
   xml:space="preserve"
   inkscape:version="0.48.5 r10040"
   sodipodi:docname="1F170.svg"
   inkscape:export-filename="D:\TESTINGEMOJI\SVGTEST\1F170.png"
   inkscape:export-xdpi="90"
   inkscape:export-ydpi="90"><metadata
   id="metadata4391"><rdf:RDF><cc:Work
       rdf:about=""><dc:format>image/svg+xml</dc:format><dc:type
         rdf:resource="http://purl.org/dc/dcmitype/StillImage" /><dc:title></dc:title></cc:Work></rdf:RDF></metadata><defs
   id="defs4389" /><sodipodi:namedview
   pagecolor="#ffffff"
   bordercolor="#666666"
   borderopacity="1"
   objecttolerance="10"
   gridtolerance="10"
   guidetolerance="10"
   inkscape:pageopacity="0"
   inkscape:pageshadow="2"
   inkscape:window-width="640"
   inkscape:window-height="480"
   id="namedview4387"
   showgrid="false"
   inkscape:zoom="3.6875"
   inkscape:cx="32"
   inkscape:cy="32"
   inkscape:window-x="599"
   inkscape:window-y="293"
   inkscape:window-maximized="0"
   inkscape:current-layer="Layer_1" />
<g
   id="g4379">
	<path
   fill="#EC1C24"
   d="M63.918,57.028c0,3.808-3.082,6.89-6.89,6.89H6.887C3.084,63.918,0,60.836,0,57.028V6.887   C0,3.086,3.084,0,6.887,0h50.141c3.808,0,6.89,3.086,6.89,6.887V57.028z"
   id="path4381" />
	<path
   fill="#C32129"
   d="M0,48.671v8.357c0,3.808,3.084,6.89,6.887,6.89h50.141c3.808,0,6.89-3.082,6.89-6.89V6.887   C53.004,46.535,13.767,49.048,0,48.671z"
   id="path4383" />
	<path
   fill="#FFFFFF"
   d="M42.583,46.864l-2.052-5.383H23.093l-2.05,5.501c-0.799,2.144-1.482,3.595-2.046,4.349   c-0.567,0.748-1.492,1.125-2.782,1.125c-1.094,0-2.06-0.404-2.896-1.201c-0.84-0.798-1.259-1.708-1.259-2.722   c0-0.585,0.096-1.189,0.292-1.813c0.192-0.625,0.517-1.492,0.966-2.604l10.973-27.86c0.312-0.797,0.688-1.759,1.125-2.882   c0.442-1.123,0.909-2.054,1.408-2.795c0.495-0.742,1.149-1.339,1.959-1.799c0.809-0.459,1.808-0.687,3-0.687   c1.208,0,2.219,0.228,3.027,0.687c0.809,0.459,1.463,1.049,1.962,1.771c0.494,0.723,0.916,1.496,1.256,2.325   c0.342,0.833,0.777,1.94,1.304,3.322L50.542,43.88c0.878,2.109,1.315,3.641,1.315,4.595c0,0.993-0.414,1.908-1.243,2.736   c-0.83,0.829-1.829,1.245-3,1.245c-0.683,0-1.268-0.12-1.757-0.369c-0.487-0.243-0.897-0.573-1.229-0.993   c-0.331-0.42-0.687-1.061-1.067-1.932C43.182,48.294,42.854,47.528,42.583,46.864z M25.374,34.955H38.19L31.723,17.25   L25.374,34.955z"
   id="path4385" />
</g>
</svg>
